X:1
T:So ich bedenck
T:So ich bedenck
T:Anonymous
T:Source : Trium vocum cantiones---Nürnberg---J.Petreius---1541. Editor : André Vierendeels (13/05/16).
T:Notes : Original clefs : G2? G2, C1 Editorial accidentals above the staff Original note values have been halved Original text middle German m11 in S3 : "G" notated as "E" in original print
T:©
T:©
T:©
T:©
T:©
T:©
C:Anonymous
Z:©
%%score [ 1 2 3 ]
L:1/8
Q:1/4=94
M:2/2
K:C
V:1 treble nm="Soprano 1" snm="S 1"
V:2 treble nm="Soprano 2" snm="S 2"
V:3 treble nm="Soprano 3" snm="S 3"
V:1
 z8 | z8 | z8 | G4 G2 G2 | c8 | z8 | z4 z2 c2 | d2 d2 e4 | z2 e2 e2 f2 | e2 dc BA d2- | d2 c4 B2 | %11
w: |||So ich be-|denck,||an-|gang und endt|al- ler ding|_ _ _ _ _ auff|_ er- *|
 c8 | z8 | z8 | z8 | G4 G2 G2 | c8- | c8 | z2 c2 d2 d2 | e8- | e8 | z2 e2 e4 | f4 e4 | %23
w: den,||||so findt ich|nit|_|das ich da-|mit,|_|das ich|da- mit|
 z2 e2 e2 f2 | e2 dc BA d2 | d2 c4 B2 | c2 BA G2 A2 | G2 A3 GAG/F/ | E4 z2 g2 | g3 f e3 d | %30
w: mein herz möcht|ge- we- * * * *||||ren, so|ich be- tracht tück|
 c3 B A2 A2 | B2 B2 c3 B |"^#" A2 G4 F2 | G4 z2 g2 | g3 f e3 d | c3 B A2 A2 | B2 B2 c3 B | %37
w: freu- lich lieb, mein|herz zu su- chen|freu- * *|den, und|mich auffs höchst dar-|inn üb fübst _|doch zu bit- te-|
 A2 G4 F2 | G2 B2 c3 B | A2 G4 F2 | G8 | z4 z2 G2 | c2 d2 e2 f2 | e3 d/c/ BA d2- | dc c4 B2 | c8 | %46
w: ren schei den,|doch zu bit- te-|ren schei- *|den,|co-|ste die zeit kurz|o- * * * * *|* * * der|lang,|
 z4 z2 G2 | c2 d2 e2 f2 | e3 d/c/ BA d2- | dc c4 B2 | c2 G2 A2 A2 | G8 |] %52
w: co-|ste die zeit kurz|o- * * * * *|* * * der|lang, kurz o- der|lang.|
V:2
 G4 G2 G2 | c4 z2 d2 | d2 d2 edef | g8- | g4 z2 e2 | e2 f2 e2 dc | BA d4 c2- | c2 B2 c4 | %8
w: So ich be-|denck, an-|fang und endt _ _ _|_|* al-|ler ding _ _ _|_ _ auff er-|* * den,|
"^b" z2 c2 c2 B2 | c2 g4 f2 | e3 d/c/ d4 | c4 z2 G2 | G2 G2 c4 | z2 c2 d2 d2 | e4 d2 g2- | %15
w: al- ler ding|auff er- *||den, so|findt ich nit|das ich da-|mit, so findt|
 g2 fe d2 d2 | c2 BA G2 A2- | AG A2 G2 A2- | AG c3 B/A/ B2 | c4 B2 c2 | B2 c4 BA | G3 A BG c2- | %22
w: _ ich _ nit das|ich da- * mit, das|_ _ _ _ ich|_ _ da- * * *|mit, das ich|_ _ _ _|* * * * da-|
 c2 B2 c4 |"^b" z2 c4 B2 | c2 g4 f2 | e2 dc d4 | c8- | c8 | g4 g3 f | e3 d c3 B | A4 z2 d2 | %31
w: * * mit|mein herz|möcht _ ge-|we- * * *|ren,|_|so ich be-|tracht tück freu- lich|lieb mein|
 d2 d2 e3 d | c2 B2 A4 | G2 g2 g3 f | e3 d c3 B | A4 z2 d2 | d2 d2 e3 d | c2 B2 A4 | G2 d2 e3 d | %39
w: herz zu su- chen|freu- * *|den, und mich auffs|höchst dar- inn _|üb fübst|doch zu bit- te-|ren schei- *|den zu bit- te-|
 c2 B2 A4 | G8 | z2 G2 c2 d2 | e2 f2 e2 d2 | g3 f/e/ dc f2 | e2 dc d2 d2 | c8 | z2 G2 c2 d2 | %47
w: ren schei- *|den,|co- ste die|zeit kurz o- *||* * * * der|lang,-|co- ste die|
 e2 f2 e2 d2 | g3 f/e/ dc f2 | e2 dc d2 d2 | c8- | c8 |] %52
w: zeit kurz o- *|||lang.|_|
V:3
 z8 | z4 G4 | G2 G2 c4 | z2 d2 d2 d2 | e4 z2 c2 | c2 d2 c3 B/A/ | G2 F2 G2 E2 | D4 C4 | %8
w: |So|ich be- denck,|an- fang und|endt al-|ler ding auff _ _|_ er- * *|* den,|
 z2 C2 C2 D2 |"^b" CDEF GABG | c2 A2 G4 | C8 | z2 C2 C2 C2 | F4 z2 F2 | G2 G2 G3 A | B2 c4 B2 | %16
w: al- ler ding|auff _ _ _ _ _ _ _|er- * *|den,|so findt ich|nit das|ich da- mit, _|_ das ich|
 c2 F2 E2 F2- | FEFD E2 F2- | FC E2 D4 | CDEF G2 A2 | G2 A3 GAG/F/ | E2 G4 E2 | D4 C4 | %23
w: da- * * *|||mit _ _ _ _ das|_ _ _ _ _ _|* ich da-|* mit|
 z2 C2 C2 D2 | CDEF GABG |"^b" c2 A2 G4 | C3 D EC F2 | E2 F3 EFE/D/ | C4 z4 | c2 c3 B A2- | %30
w: mein herz möcht|ge- * * * * * * *|* * we-|||ren,|so ich be- tracht|
 AG F2 FE D2 | z2 D2 C3 C | F2 G2 D4 | G4 z4 | c2 c3 B A2- |"^#" AG F3 E D2 | z2 D2 C3 C | %37
w: _ tïck freu- lich _ lieb|mein herz zu|su- chen freu-|den,|fübst doch zu bit-|* * * te- ren,|zu bit- te-|
 F2 G2 D4 | G2 G2 C3 C | F2 G2 D4 | G4 z2 G2 | c2 d2 e2 gf |"^b" e2 d2 c2 B2 | c4 d2 B2 | %44
w: ren schei- *|den, zu bit- te-|ren schei- *|den, co-|ste die zeit kurz _|o- * * *||
"^b" c2 A2 G4 | c4 z2 G2 | c2 d2 e2 gf |"^b" e2 d2 c2 B2 |"^b" c4 d2 B2 | c2 A2 G4 | C2 C2 F2 F2 | %51
w: * * der|lang, co-|ste die zeit kurz _|o- * * *||* * der|lang, kurz o- der|
 C8 |] %52
w: lang.|

